app/img/step-5/var-2.svg

<svg width="90" height="90" viewBox="0 0 90 90" fill="none" xmlns="http://www.w3.org/2000/svg">
<g clip-path="url(#clip0)">
<path d="M74.8697 80.7909V88.4483C74.8697 89.3056 74.1753 90 73.318 90H16.6825C15.8252 90 15.1309 89.3056 15.1309 88.4483V80.7909C15.1309 72.7921 21.675 66.4478 29.6738 66.3702C32.336 66.3419 34.725 65.0243 36.183 62.9469L36.1713 62.9352C37.7792 60.6479 37.6198 58.5871 37.6221 57.0215L37.6512 56.9497C30.6979 54.0675 25.8063 47.2131 25.8024 39.2201V38.5878C23.0185 38.5878 20.9554 36.3798 20.9573 33.8261C20.9587 32.0192 20.9694 17.0713 20.9709 14.9231C20.9728 12.0312 23.3178 9.68622 26.2097 9.68816C28.5616 3.82193 34.2465 -0.0038762 40.5412 2.94716e-06L61.4052 0.0155195C62.4894 0.0174591 63.24 1.10362 62.854 2.11802L61.5254 5.62088C61.2054 6.46847 61.6748 7.40917 62.5437 7.66131L63.6182 7.97358C66.8389 8.90865 69.2643 11.8432 69.2643 15.4487C69.2643 16.9053 69.2585 27.1385 69.2546 33.543C69.2546 36.3301 66.9931 38.5878 64.2059 38.5878V39.2201C64.2001 47.2305 59.291 54.0927 52.3183 56.9652V56.9672L52.3415 57.0215C52.3415 58.5163 52.1664 60.6221 53.7904 62.9372C55.2053 64.9568 57.6049 66.3413 60.3268 66.3702C68.3255 66.4478 74.8697 72.7921 74.8697 80.7909Z" fill="#E8B181"/>
<path d="M74.8697 80.7909V88.4484C74.8697 89.3057 74.1753 90 73.318 90H16.6825C15.8252 90 15.1309 89.3057 15.1309 88.4484V80.7909C15.1309 72.7921 21.675 66.4478 29.6738 66.3702C32.3188 66.3421 34.7157 65.0401 36.1849 62.943C41.4311 68.7728 42.4098 69.8601 43.8462 71.4577C44.463 72.1424 45.5375 72.1424 46.1543 71.4577C47.6241 69.823 48.6311 68.7043 53.8038 62.9562C55.2096 64.9627 57.6141 66.3415 60.3268 66.3702C68.3255 66.4478 74.8697 72.7921 74.8697 80.7909Z" fill="#C7E3FA"/>
<path d="M56.2266 70.2649C63.9034 70.614 70.0208 76.9506 70.0208 84.7128V90H73.3181C74.175 90 74.8697 89.3053 74.8697 88.4484V80.803C74.8697 72.8015 68.3231 66.4523 60.3218 66.3698C59.2277 66.3586 58.1844 66.1289 57.2351 65.7224C57.2111 65.7736 56.2388 70.2096 56.2266 70.2649Z" fill="#ABD3F3"/>
<path d="M57.2347 65.7224C57.2107 65.7736 55.2963 74.4823 55.3085 74.4268C55.056 75.5725 53.606 75.9414 52.8366 75.0556C47.7438 69.1911 48.4386 69.9559 47.9229 69.4908L53.8034 62.956C54.6568 64.1742 55.8518 65.1289 57.2347 65.7224Z" fill="#E4F0FA"/>
<path d="M36.1846 62.943L41.9374 69.3358L37.1654 74.9906C36.4028 75.8945 34.9349 75.532 34.6805 74.3771C34.6682 74.3219 32.7894 65.7734 32.7651 65.7222C34.1481 65.1289 35.3312 64.161 36.1846 62.943Z" fill="#E4F0FA"/>
<path d="M69.264 15.4487C69.264 16.9053 69.2582 27.1385 69.2543 33.543C69.2543 36.3301 66.9928 38.5878 64.2056 38.5878C64.2075 36.4775 64.2114 31.3512 64.2134 26.6342C64.2172 21.4924 60.053 17.3223 54.9112 17.3184L35.1275 17.3049C29.9857 17.301 25.8137 21.4672 25.8098 26.609L25.8021 38.5878C23.0182 38.5878 20.9551 36.3798 20.957 33.8261C20.9584 32.0192 20.9691 17.0713 20.9706 14.9231C20.9725 12.0312 23.3175 9.68622 26.2094 9.68816C28.5613 3.82174 34.2462 -0.0038762 40.5409 2.94731e-06L61.4047 0.0157135C62.49 0.0164893 63.2391 1.10284 62.8543 2.11763L61.5255 5.62069C61.2043 6.46731 61.6735 7.408 62.543 7.66092L63.6179 7.97358C66.8386 8.90865 69.264 11.8432 69.264 15.4487Z" fill="#42434D"/>
<path d="M54.9113 17.3185C60.0531 17.3223 64.2174 21.4924 64.2135 26.6342C64.2118 31.0287 64.2058 39.2201 64.2058 39.2201C64.1999 47.2305 59.2909 54.0927 52.3181 56.9652V56.9672C39.6969 62.1718 25.8088 52.8611 25.8022 39.2201C25.8022 38.208 25.8092 27.905 25.81 26.609C25.8139 21.4672 29.9859 17.301 35.1277 17.3049L54.9113 17.3185Z" fill="#E8B181"/>
<path d="M52.5897 60.212C47.8112 62.2123 42.5598 62.3675 37.4106 60.212C37.6737 59.1208 37.6298 58.4141 37.6298 57.0273L37.6589 56.9555C42.3298 58.8943 47.6615 58.8982 52.3415 56.9555L52.3706 57.0273C52.3706 58.4146 52.3267 59.1212 52.5897 60.212Z" fill="#E2A879"/>
<path d="M40.6524 51.6075C43.8094 53.5826 41.32 58.4263 37.864 57.0391C30.7586 54.1872 25.7983 47.2629 25.7983 39.2083V26.6204C25.7983 24.6646 26.4015 22.8495 27.432 21.351C28.7232 19.4735 31.6312 20.4045 31.6173 22.6831C31.6169 22.7306 31.6171 35.2816 31.6171 35.3291C31.6171 42.4107 35.3395 48.2837 40.6524 51.6075Z" fill="#F1C596"/>
<path d="M62.8535 2.11802C61.4784 5.74385 61.498 5.65928 61.4648 5.83035L46.3594 5.81872C40.4965 5.81503 35.1621 9.13383 32.5576 14.3301C32.231 14.9818 31.64 15.47 30.9272 15.6221C28.5636 16.1266 26.7909 18.2275 26.7893 20.7418L26.7874 22.4583C26.1628 23.7074 25.8118 25.1175 25.8098 26.609L25.8052 33.8849C25.8031 37.0268 20.9545 37.2351 20.957 33.8261C20.9584 32.0192 20.9691 17.0713 20.9706 14.9231C20.9725 12.0312 23.3175 9.68622 26.2094 9.68816C28.5611 3.82193 34.246 -0.0038762 40.5407 2.94716e-06L61.4047 0.0155195C62.4889 0.0174591 63.2395 1.10362 62.8535 2.11802Z" fill="#4D4E59"/>
<path d="M46.5516 71.0155V82.2417C46.5516 83.099 45.8572 83.7934 44.9999 83.7934C44.1426 83.7934 43.4482 83.099 43.4482 82.2417V71.0155L43.8459 71.4577C44.4626 72.1424 45.5372 72.1424 46.1539 71.4577L46.5516 71.0155Z" fill="#ABD3F3"/>
<path d="M36.3071 71.0892C36.5961 72.4023 36.9045 73.8007 37.1663 74.9897C36.4037 75.8937 34.9358 75.5326 34.6815 74.3774C33.9358 70.9905 32.7819 65.7569 32.7656 65.7224C34.1485 65.1289 35.3317 64.161 36.1851 62.943L37.8415 64.7856C36.4176 66.5584 35.8144 68.8568 36.3071 71.0892Z" fill="#F1FAFC"/>
<path d="M33.774 70.2649C26.0972 70.614 19.9798 76.9506 19.9798 84.7128V90H16.6825C15.8256 90 15.1309 89.3053 15.1309 88.4484V80.803C15.1309 72.8015 21.6775 66.4523 29.6788 66.3698C30.7729 66.3586 31.8162 66.1289 32.7654 65.7224C32.7895 65.7736 33.7618 70.2096 33.774 70.2649Z" fill="#E4F0FA"/>
</g>
<defs>
<clipPath id="clip0">
<rect width="90" height="90" fill="white"/>
</clipPath>
</defs>
</svg>

<svg width="90" height="90" fill="none" xmlns="http://www.w3.org/2000/svg"><g clip-path="url(#clip0)"><path d="M74.87 80.79v7.658c0 .858-.695 1.552-1.552 1.552H16.683a1.551 1.551 0 01-1.552-1.552v-7.657c0-7.999 6.544-14.343 14.543-14.42a8.039 8.039 0 006.509-3.424l-.012-.012c1.608-2.287 1.449-4.348 1.451-5.913l.03-.072c-6.954-2.883-11.846-9.737-11.85-17.73v-.632c-2.784 0-4.847-2.208-4.845-4.762l.014-18.903a5.237 5.237 0 015.239-5.235A15.432 15.432 0 0140.54 0l20.864.016a1.552 1.552 0 011.449 2.102l-1.329 3.503c-.32.847.15 1.788 1.019 2.04l1.074.313c3.22.935 5.646 3.87 5.646 7.475 0 1.456-.005 11.69-.01 18.094a5.047 5.047 0 01-5.048 5.045v.632c-.006 8.01-4.915 14.873-11.888 17.745v.002l.024.055c0 1.494-.176 3.6 1.448 5.915a8.107 8.107 0 006.537 3.433c7.999.078 14.543 6.422 14.543 14.42z" fill="#E8B181"/><path d="M74.87 80.79v7.658c0 .858-.695 1.552-1.552 1.552H16.683a1.551 1.551 0 01-1.552-1.552v-7.657c0-7.999 6.544-14.343 14.543-14.42a8.033 8.033 0 006.51-3.428c5.247 5.83 6.226 6.917 7.662 8.515a1.554 1.554 0 002.308 0l7.65-8.502a8.1 8.1 0 006.523 3.414c7.999.078 14.543 6.422 14.543 14.42z" fill="#C7E3FA"/><path d="M56.227 70.265c7.676.349 13.794 6.686 13.794 14.448V90h3.297c.857 0 1.552-.695 1.552-1.552v-7.645c0-8.001-6.547-14.35-14.548-14.433a8.035 8.035 0 01-3.087-.648c-.024.052-.996 4.488-1.008 4.543z" fill="#ABD3F3"/><path d="M57.235 65.722c-.024.052-1.939 8.76-1.926 8.705-.253 1.145-1.703 1.514-2.472.629-5.093-5.865-4.398-5.1-4.914-5.565l5.88-6.535a8.063 8.063 0 003.432 2.766zM36.185 62.943l5.752 6.393-4.772 5.655c-.762.903-2.23.541-2.484-.614-.013-.055-1.892-8.604-1.916-8.655a8.058 8.058 0 003.42-2.779z" fill="#E4F0FA"/><path d="M69.264 15.449l-.01 18.094a5.047 5.047 0 01-5.048 5.045l.007-11.954a9.308 9.308 0 00-9.302-9.316l-19.784-.013c-5.141-.004-9.313 4.162-9.317 9.304l-.008 11.979c-2.784 0-4.847-2.208-4.845-4.762l.014-18.903a5.237 5.237 0 015.238-5.235A15.432 15.432 0 0140.541 0l20.864.016a1.552 1.552 0 011.45 2.102l-1.33 3.503a1.552 1.552 0 001.018 2.04l1.075.313c3.22.935 5.646 3.87 5.646 7.475z" fill="#42434D"/><path d="M54.911 17.319a9.308 9.308 0 019.302 9.315c-.001 4.395-.007 12.586-.007 12.586-.006 8.01-4.915 14.873-11.888 17.745v.002c-12.621 5.205-26.51-4.106-26.516-17.747l.008-12.611c.004-5.142 4.176-9.308 9.318-9.304l19.783.014z" fill="#E8B181"/><path d="M52.59 60.212c-4.779 2-10.03 2.155-15.18 0 .264-1.091.22-1.798.22-3.185l.029-.072a19.241 19.241 0 0014.683 0l.029.072c0 1.388-.044 2.094.219 3.185z" fill="#E2A879"/><path d="M40.652 51.608c3.157 1.975.668 6.818-2.788 5.431-7.105-2.852-12.066-9.776-12.066-17.83V26.62c0-1.955.604-3.77 1.634-5.269 1.291-1.877 4.2-.947 4.185 1.332V35.33c0 7.082 3.723 12.955 9.035 16.279z" fill="#F1C596"/><path d="M62.853 2.118c-1.375 3.626-1.355 3.541-1.388 3.712L46.359 5.82a15.433 15.433 0 00-13.801 8.511c-.327.652-.918 1.14-1.63 1.292a5.24 5.24 0 00-4.139 5.12l-.002 1.716a9.283 9.283 0 00-.977 4.151l-.005 7.276c-.002 3.142-4.85 3.35-4.848-.059l.014-18.903a5.237 5.237 0 015.238-5.235A15.432 15.432 0 0140.541 0l20.864.016a1.552 1.552 0 011.448 2.102z" fill="#4D4E59"/><path d="M46.552 71.016v11.226a1.551 1.551 0 11-3.104 0V71.015l.398.443a1.553 1.553 0 002.308 0l.398-.442z" fill="#ABD3F3"/><path d="M36.307 71.09l.86 3.9c-.763.904-2.231.543-2.486-.613-.745-3.386-1.9-8.62-1.915-8.655a8.06 8.06 0 003.42-2.779l1.656 1.843c-1.424 1.772-2.028 4.07-1.535 6.303z" fill="#F1FAFC"/><path d="M33.774 70.265c-7.677.349-13.794 6.686-13.794 14.448V90h-3.297a1.552 1.552 0 01-1.552-1.552v-7.645c0-8.001 6.546-14.35 14.548-14.433a8.034 8.034 0 003.086-.648c.024.052.997 4.488 1.009 4.543z" fill="#E4F0FA"/></g><defs><clipPath id="clip0"><path fill="#fff" d="M0 0h90v90H0z"/></clipPath></defs></svg>
